X: 31
T:Mazurka de Salou (B. Le Tron)
C:Trad 1, 99
M:3/4
L:1/8
K:G
G GB|:e2 eg eB|e3 e ee|d2 de dc|B3 A AB|cB AB ce|1 d3 e ed|
dc cB BA|B2B2 GB:|2 d3 e dc|Bc BA GF|E6:|Ec cB BA|Dc cB BA|
Dc cA FA|GB Bc cd|Ec cB BA|Dc cB BA|\
Dc cA FA|1 G2B2 G2B2 F2A2:|2 G6||
